assets/icons/24px/outline/text-1-24px.svg

<svg width="24" height="24" viewBox="0 0 24 24" fill="none" xmlns="http://www.w3.org/2000/svg">
<path d="M2.05826 15.6635C1.8725 16.1837 2.14355 16.7559 2.66366 16.9416C3.18377 17.1274 3.75599 16.8563 3.94174 16.3362L2.05826 15.6635ZM5.5 8.99988L6.44174 8.66354C6.2996 8.26555 5.92261 7.99988 5.5 7.99988C5.07739 7.99988 4.7004 8.26555 4.55826 8.66354L5.5 8.99988ZM7.05826 16.3362C7.24401 16.8563 7.81623 17.1274 8.33634 16.9416C8.85645 16.7559 9.1275 16.1837 8.94174 15.6635L7.05826 16.3362ZM11 9L10.9999 8C10.4477 8.00004 10 8.44775 10 9H11ZM12.5 8.99988L12.4999 7.99988L12.4999 7.99988L12.5 8.99988ZM12.5 12.4999L12.5 11.4999L12.4999 11.4999L12.5 12.4999ZM14.5 14.9999L15.3944 15.4471L15.3944 15.4471L14.5 14.9999ZM12 15.9999L12 14.9999L11.9999 14.9999L12 15.9999ZM11 16H10C10 16.2653 10.1054 16.5196 10.2929 16.7072C10.4805 16.8947 10.7349 17 11.0001 17L11 16ZM21 9.99998C21.5523 9.99998 22 9.55226 22 8.99997C22 8.44769 21.5523 7.99998 21 7.99998L21 9.99998ZM21 16.9999C21.5523 16.9999 22 16.5522 22 15.9999C22 15.4476 21.5523 14.9999 21 14.9999L21 16.9999ZM3.5 14.5999L2.55826 14.2635L2.55826 14.2635L3.5 14.5999ZM7.5 14.5999L8.44174 14.2635L8.44174 14.2635L7.5 14.5999ZM11.0001 10L12.5001 9.99988L12.4999 7.99988L10.9999 8L11.0001 10ZM12.5001 9.99988C12.8219 9.99986 13.1216 10.0879 13.3088 10.2108C13.4707 10.3171 13.5 10.4055 13.5 10.5H15.5C15.5 9.59451 15.0062 8.93278 14.4065 8.53902C13.8321 8.16186 13.1318 7.99984 12.4999 7.99988L12.5001 9.99988ZM13.5 10.5C13.5 10.8514 13.4102 11.0957 13.2943 11.2347C13.2051 11.3417 13.0095 11.4999 12.5 11.4999L12.5 13.4999C13.4905 13.4999 14.2949 13.1581 14.8307 12.5152C15.3398 11.9043 15.5 11.1486 15.5 10.5H13.5ZM12.5 13.4999C12.9048 13.4999 13.2448 13.7013 13.45 13.9749C13.6727 14.2719 13.6367 14.4904 13.6056 14.5527L15.3944 15.4471C15.8633 14.5094 15.5773 13.478 15.05 12.7749C14.5052 12.0484 13.5952 11.4999 12.5 11.4999L12.5 13.4999ZM13.6056 14.5527C13.499 14.7659 13.3722 14.8536 13.1628 14.9134C12.8855 14.9926 12.5344 14.9999 12 14.9999L12 16.9999C12.4656 16.9999 13.1145 17.0072 13.7122 16.8365C14.3778 16.6463 15.001 16.234 15.3944 15.4471L13.6056 14.5527ZM11.9999 14.9999L10.9999 15L11.0001 17L12.0001 16.9999L11.9999 14.9999ZM12 16V12.5H10V16H12ZM12 12.5V9H10V12.5H12ZM12.4999 11.4999L10.9999 11.5L11.0001 13.5L12.5001 13.4999L12.4999 11.4999ZM21 7.99998C19.7629 7.99999 18.6289 8.4361 17.8001 9.24834C16.9682 10.0636 16.5 11.203 16.5 12.5H18.5C18.5 11.6971 18.7818 11.0866 19.1999 10.6767C19.6211 10.2639 20.2371 9.99999 21 9.99998L21 7.99998ZM16.5 12.5C16.5 13.797 16.9682 14.9364 17.8001 15.7517C18.6289 16.5639 19.7629 17 21 16.9999L21 14.9999C20.2371 15 19.6211 14.736 19.1999 14.3232C18.7818 13.9134 18.5 13.3029 18.5 12.5H16.5ZM3.94174 16.3362L4.44174 14.9362L2.55826 14.2635L2.05826 15.6635L3.94174 16.3362ZM4.44174 14.9362L6.44174 9.33621L4.55826 8.66354L2.55826 14.2635L4.44174 14.9362ZM4.55826 9.33621L6.55826 14.9362L8.44174 14.2635L6.44174 8.66354L4.55826 9.33621ZM6.55826 14.9362L7.05826 16.3362L8.94174 15.6635L8.44174 14.2635L6.55826 14.9362ZM3.5 15.5999H7.5V13.5999H3.5V15.5999Z" fill="white"/>
</svg>

<svg width="24" height="24" fill="none" xmlns="http://www.w3.org/2000/svg"><path d="M2.058 15.664a1 1 0 1 0 1.884.672l-1.884-.672zM5.5 9l.942-.336a1 1 0 0 0-1.884 0L5.5 9zm1.558 7.336a1 1 0 1 0 1.884-.672l-1.884.672zM11 9V8a1 1 0 0 0-1 1h1zm1.5 0V8v1zm0 3.5v-1 1zm2 2.5l.894.447L14.5 15zM12 16v-1 1zm-1 0h-1a1 1 0 0 0 1 1v-1zm10-6a1 1 0 1 0 0-2v2zm0 7a1 1 0 1 0 0-2v2zM3.5 14.6l-.942-.336.942.336zm4 0l.942-.336-.942.336zM11 10h1.5V8H11v2zm1.5 0c.322 0 .622.088.809.21.162.107.191.195.191.29h2c0-.905-.494-1.567-1.094-1.961-.574-.377-1.274-.54-1.906-.54v2zm1 .5c0 .351-.09.596-.206.735-.089.107-.285.265-.794.265v2c.99 0 1.795-.342 2.33-.985.51-.61.67-1.366.67-2.015h-2zm-1 3c.405 0 .745.201.95.475.223.297.187.515.156.578l1.788.894c.47-.938.183-1.969-.344-2.672A3.187 3.187 0 0 0 12.5 11.5v2zm1.106 1.053a.626.626 0 0 1-.443.36c-.277.08-.629.087-1.163.087v2c.466 0 1.114.007 1.712-.163.666-.19 1.289-.603 1.682-1.39l-1.788-.894zM12 15h-1v2h1v-2zm0 1v-3.5h-2V16h2zm0-3.5V9h-2v3.5h2zm.5-1H11v2h1.5v-2zM21 8c-1.237 0-2.371.436-3.2 1.248-.832.816-1.3 1.955-1.3 3.252h2c0-.803.282-1.413.7-1.823.421-.413 1.037-.677 1.8-.677V8zm-4.5 4.5c0 1.297.468 2.436 1.3 3.252C18.63 16.564 19.763 17 21 17v-2c-.763 0-1.379-.264-1.8-.677-.418-.41-.7-1.02-.7-1.823h-2zM3.942 16.336l.5-1.4-1.884-.672-.5 1.4 1.884.672zm.5-1.4l2-5.6-1.884-.672-2 5.6 1.884.672zm.116-5.6l2 5.6 1.884-.672-2-5.6-1.884.672zm2 5.6l.5 1.4 1.884-.672-.5-1.4-1.884.672zM3.5 15.6h4v-2h-4v2z" fill="#fff"/></svg>
